X:1
T:To Mary
T:To Mary
T:PERCY BYSSHE SHELLEY. 
T:MAUDE VALÉRIE WHITE. 
T:Words by
T:Words by
T:Music by
T:"Dedicated to my [White's] sister Annie Compton" Engraved in Musescore by Daniel of Jerusalem 
C:Maude Valérie White
Z:Percy Bysshe Shelley
%%score ( 1 2 ) { ( 3 6 ) | ( 4 5 ) }
L:1/8
Q:1/4=94
M:4/4
K:F
V:1 treble nm="VOICE"
V:2 treble 
V:3 treble nm="PIANOFORTE"
V:6 treble 
V:4 bass 
V:5 bass 
V:1
"^Andantino arioso." z | z8 | z8 | z4 z2 z"^Semplice con tenerezza" A | A3 A GE (D/F/) E | %5
w: |||To|Ma- ry dear, that you * were|
w: |||||
 (D4!<(! (C4)!<)! |!p! C) C D C!<(! (F2 B2)!<)! |!>(! A3 A G2 z G!>)! | A3 E (^CE) A3/2 B/ | A8 | %10
w: here, _|_ With your brown eyes _|bright and   clear, And|your sweet voice * like a|bird.|
w: |||||
!<(! (A4 A2) A2!<)! | (d4 A2) z2 |"^Appassionato" G3 d cB (A/c/) B | (G4 G2) F3/2 G/ | %14
w: Sing- * ing|love, _|Sing- ing love to its _ lone|mate _ In the|
w: ||||
!p! (E2({GF)} E3/2) C/ F7/2 F/ |"^rall." (A4 (A2) G3/2) F/ | (F4 F) z z2 | z8 | z8 | %19
w: i- * vy bower dis-|con- * * so-|late. *|||
w: |||||
"^Con tenerezza"!p! A3 A GE (D/F/) E | (D4 (C4) | C) C D C (F2 B2) | A3 A G2 z G | %23
w: Ma- ry dear,  come to * me|soon, _|_ I am not well whilst|thou art far; As|
w: ||* (All is) * * *||
 A3 E (^CE) A3/2 B/ | (A8 | (A2) A) z z2 A2 | d4 A z z A |"^espressivo"!<(! G3 d c B (3(Ac) B!<)! | %28
w: sun- set to the spher- ed|moon|* * As|twi- light, as|twi- light to the west- * ern|
w: |||||
 (G4 G2) F3/2 G/ | F2({FE)} D3/2 C/ F3 F | (A4"^rall." (A2) G3/2) F/ | (F4 F) z z2 | z4 z2 z A | %33
w: star, _ Thou be-|lov- ed, be- lov- ed|art _ _ to|me. _|O|
w: |||||
 c3 c"^rall." !breath!c G G G | (A8 | A4) z4 | z8 | z8 |] %38
w: Ma- ry dear, that you were|here!|_|||
w: |||||
V:2
 x | x8 | x8 | x8 | x8 | x8 | x8 | x8 | x8 | x8 | x8 | x8 | x8 | x8 | x8 | x8 | x8 | x8 | x8 | x8 | %20
 x8 | x8 | x8 | x8 | x8 | x8 | x8 | x8 | x8 | x8 | x8 | x8 | x8 | z4 z c c c | (f8 | f4) z4 | x8 | %37
 x8 |] %38
V:3
 [Aa] | [Acea]3!<(! [Aa] [Ag][Ae][Ad]/[Af]/[Ae]!<)! | %2
!>(! [FBd]4 [EBc] [E,B,C]{/E}[G,B,D]>[G,B,C]!>)! |[K:bass] (C4 C4) |[K:treble] CCCC CCCC | %5
 CCCC CCCC | A,!p!A,A,G, C2 B,2 |[I:staff +1] [C,F,A,][C,F,A,][I:staff -1][F,A,C][F,A,C] E2 D2 | %8
[K:bass] (^C4 C2) A,C | %9
[K:treble]!<(! [G,A,E][G,A,E][F,A,D][E,A,^C]!>(! [A,F][A,F][G,A,E][G,A,E]!<)!!>)! | %10
!<(! [A,DA]3 f ed[FA^c]/e/[FAd]!<)! | (A4 A4) | %12
{/[DFG]} [DFG][DFG][DFG][DFG] [CDFG][B,DFG][A,DFG][B,DFG] | [DFG][DFG][DFG][DFG] [DFG][DFG] F2 | %14
!p! E4 [F,CF][F,C][F,A,][F,B,] | [F,A,C][A,C][A,C][F,A,] [A,C]2 [E,B,C]2 | %16
 [Acfa]3 [Aa]!<(! [Ag][Ae][Ad]/[Af]/[Ae]!<)! | %17
!>(! [FBd]4 [EBc]"^rall." [E,B,C]{/E}[G,B,D]>[G,B,C]!>)! |[K:bass] (C4 C4) |[K:treble] CCCC CCCC | %20
 (B,4 B,) B,3 | A,A,A,G, C2 B,2 |[I:staff +1] [C,F,A,][C,F,A,][I:staff -1][F,A,C][F,A,C] E2 D2 | %23
[K:bass] (^C4 C2) A,C | %24
[K:treble]!<(! [G,A,E][G,A,E][F,A,D][E,A,^C] [A,F]!>(![A,F][G,A,E][G,A,E]!<)!!>)! | %25
!<(! [A,DA]3 f ed[FA^c]/e/[FAd]!<)! | (A4 A4) | %27
{/[DFG]} [DFG][DFG][DFG][DFG] [CDFG][B,DFG][A,DFG][B,DFG] | [DFG][DFG][DFG][DFG] [DFG][DFG] F2 | %29
 E4 [F,CF][F,C][F,A,][F,B,] | [F,A,C][A,C][A,C][F,A,] [A,C]2 [E,B,C]2 | %31
 [Acfa]3 [Aa]!<(! [Ag][Ae][Ad]/[Af]/[Ae]!<)! |!>(! [FAd]4 [FAc] z z A!>)! | %33
 A3 A [B,CEG] [B,E]D/F/[B,E] | D2 CF [CFA][FAd][FAd][FA] | [Ac]4 [A,CFA]2 z2 | !arpeggio![A,CFA]8 | %37
 z8 |] %38
V:4
 z | [F,,,F,,][C,C][C,C][C,C][K:treble] c[K:bass]CCC, | [G,,G,]4!p! [C,G,C] [C,,C,]"^rall."F,E, | %3
 [F,,,F,,] z z2 C,, z z2 | (([F,,,F,,]4 [F,,,F,,]2)) [C,,,C,,] z | %5
 (([F,,,F,,]4 [F,,,F,,])) C,,D,,E,, | [F,,,F,,]3 [E,,,E,,] [D,,,D,,]2 [G,,,G,,]2 | %7
 [C,,,C,,]2 z2 [C,,G,,C,]2 [_B,,,E,,_B,,]2 | [A,,,E,,A,,]2 z2 [E,,,E,,] z z2 | %9
 A,,, z z2[K:treble]{/A} a z z2 | %10
[K:bass] [D,,A,,F,][A,,A,][A,,A,][A,,A,] [A,,A,][A,,A,][A,,A,][A,,A,] | [D,,,D,,]7/2 E,/ E,2 F,2 | %12
 [B,,,B,,]2 z2 z4 | z2 z z/ A,/ B,4 | ([B,,,C,,B,,]4 [A,,,C,,A,,]2) [D,,D,][G,,D,] | %15
 [C,,C,]2 z2 z2{/C,,,} [C,,C,]2 |"^a tempo." [F,,,F,,][C,C][C,C][C,C][K:treble] c[K:bass]CCC, | %17
 [G,,G,]4 [C,G,C] [C,,C,]F,E, | [F,,,F,,] z z2 C,, z z2 | (([F,,,F,,]4 [F,,,F,,]2)) ([C,,,C,,]2 | %20
 ((([G,,,C,,G,,]4) [G,,,C,,G,,]))) C,,D,,E,, | [F,,,F,,]3 [E,,,E,,] [D,,,D,,]2 [G,,,G,,]2 | %22
 [C,,,C,,]2 z2 [C,,G,,C,]2 [_B,,,E,,_B,,]2 | [A,,,E,,A,,]2 z2 [E,,,E,,] z z2 | %24
 A,,, z z2[K:treble]{/A} a z z2 | [D,,A,,F,][A,,A,][A,,A,][A,,A,] [A,,A,][A,,A,][A,,A,][A,,A,] | %26
!<(! [D,,,D,,]7/2 E,/ E,2 F,2!<)! | [B,,,B,,]2 z2 z4 | z2 z z/ A,/ B,4 | %29
 ([B,,,C,,B,,]4 [B,,,C,,B,,]2) [D,,D,][G,,D,] | [C,,C,]2 z2 z2{/C,,,} [C,,C,]2 | %31
"^a tempo." [F,,,F,,][C,C][C,C][C,C][K:treble] c[K:bass]CCC, | [F,,C,]C,C,(C, C,) C,2 C, | %33
 C,C,C,(C,"^rall." C,)C,C,C, | (([F,,C,]8 | [F,,C,]4)) [F,,C,F,]2 z2 | %36
{/F,,,} !arpeggio![F,,C,F,]8 | z8 |] %38
V:5
 x | x4[K:treble] x[K:bass] x3 | C,C,C,(C, x4) | x8 | x8 | x8 | x4 [C,F,][C,F,][D,F,][D,F,] | %7
 x4 [E,G,C][E,G,C][D,E,G,][D,E,G,] | x8 | x4[K:treble] x4 |[K:bass] x8 | x8 | x8 | x8 | x8 | x8 | %16
 x4[K:treble] x[K:bass] x3 | C,C,C,(C, x4) | x8 | x8 | %20
 [C,F,][C,F,][C,F,][C,F,] [C,E,][C,E,][C,F,][C,G,] | x4 [C,F,][C,F,][D,F,][D,F,] | %22
 x4 [E,G,C][E,G,C][D,E,G,][D,E,G,] | x8 | x4[K:treble] x4 | x8 | x8 | x8 | x8 | x8 | x8 | %31
 x4[K:treble] x[K:bass] x3 | x4 C4 | (([F,,E,]4 [F,,E,]4)) | x8 | x8 | x8 | x8 |] %38
V:6
 x | x8 | x8 |[K:bass] [C,F,A,][C,F,A,][C,F,A,][C,F,A,] [C,F,A,][C,F,A,][C,F,A,][C,F,A,] | %4
[K:treble][I:staff +1] [C,F,][C,F,][C,F,][C,F,] [C,F,][C,F,][C,F,][C,F,] | %5
 [C,F,][C,F,][C,F,][C,F,] [C,E,][C,E,][C,F,][C,G,] | [C,G,][C,F,][C,F,]C, x4 | x8 | %8
[I:staff -1][K:bass] [^C,E,A,][C,E,A,][C,E,A,][C,E,A,] [C,E,A,][C,E,A,][C,E,A,][E,A,] | %9
[K:treble] x8 | x8 | [A,DF][A,DF][A,DF][A,DF] [A,DF][A,DF][A,DF][A,DF] | G,2 x D z4 | %13
 (G,4 G,2) [G,D][G,D] | [G,C][G,C][G,D][G,C] z4 | x8 | x8 | x8 | %18
[K:bass] [C,F,A,][C,F,A,][C,F,A,][C,F,A,] [C,F,A,][C,F,A,][C,F,A,][C,F,A,] | %19
[K:treble][I:staff +1] [C,F,][C,F,][C,F,][C,F,] [C,F,][C,F,][C,F,][C,F,] | x8 | %21
 [C,G,][C,F,][C,F,]C, x4 | x8 | %23
[I:staff -1][K:bass] [^C,E,A,][C,E,A,][C,E,A,][C,E,A,] [C,E,A,][C,E,A,][C,E,A,][E,A,] | %24
[K:treble] x8 | x8 | [A,DF][A,DF][A,DF][A,DF] [A,DF][A,DF][A,DF][A,DF] | G,2 x D z4 | %28
 (G,4 G,2) [G,D][G,D] | [G,C][G,C][G,D][G,C] z4 | x8 | x8 | x8 | ([B,CE]4 x4) | %34
 [F,A,](([F,A,][F,A,]))[A,C] x4 | x8 | x8 | x8 |] %38

